src/images/hackathon/others.svg

<svg fill="none" height="24" viewBox="0 0 24 24" width="24" xmlns="http://www.w3.org/2000/svg"><path d="m10.3059 10.9729h-6.6706c-.08343 0-.16604-.0165-.24312-.0485-.07708-.0321-.14711-.0791-.20611-.1383-.05899-.0592-.10578-.1295-.13771-.2069s-.04836-.1603-.04836-.2441v-6.69727c0-.08376.01643-.1667.04836-.24408.03193-.07739.07872-.1477.13771-.20693.059-.05923.12903-.10621.20611-.13827.07708-.03205.15969-.04855.24312-.04855h6.6706c.0834 0 .166.0165.2431.04855.0771.03206.1471.07904.2061.13827s.1058.12954.1377.20693c.032.07738.0484.16032.0484.24408v6.69727c0 .0838-.0164.1667-.0484.2441-.0319.0774-.0787.1477-.1377.2069s-.129.1062-.2061.1383c-.0771.032-.1597.0485-.2431.0485zm-6.03531-1.27564h5.40002v-5.42159h-5.40002zm16.09411 1.27564h-6.6706c-.0834 0-.166-.0165-.2431-.0485-.0771-.0321-.1471-.0791-.2061-.1383s-.1058-.1295-.1377-.2069c-.032-.0774-.0484-.1603-.0484-.2441v-6.69727c0-.08376.0164-.1667.0484-.24408.0319-.07739.0787-.1477.1377-.20693s.129-.10621.2061-.13827c.0771-.03205.1597-.04855.2431-.04855h6.6706c.1685 0 .3301.0672.4492.18682.1192.11961.1861.28185.1861.45101v6.69727c0 .1692-.0669.3314-.1861.451-.1191.1196-.2807.1868-.4492.1868zm-6.0353-1.27564h5.4v-5.42159h-5.4zm-4.0235 11.30274h-6.6706c-.08343 0-.16604-.0165-.24312-.0486-.07708-.032-.14711-.079-.20611-.1382-.05899-.0592-.10578-.1296-.13771-.2069-.03193-.0774-.04836-.1604-.04836-.2441v-6.6973c0-.0838.01643-.1667.04836-.2441s.07872-.1477.13771-.2069c.059-.0592.12903-.1062.20611-.1383.07708-.032.15969-.0485.24312-.0485h6.6706c.0834 0 .166.0165.2431.0485.0771.0321.1471.0791.2061.1383s.1058.1295.1377.2069c.032.0774.0484.1603.0484.2441v6.6973c0 .0837-.0164.1667-.0484.2441-.0319.0773-.0787.1477-.1377.2069s-.129.1062-.2061.1382c-.0771.0321-.1597.0486-.2431.0486zm-6.03531-1.2757h5.40002v-5.4216h-5.40002zm16.09411 1.2757h-6.6706c-.0834 0-.166-.0165-.2431-.0486-.0771-.032-.1471-.079-.2061-.1382s-.1058-.1296-.1377-.2069c-.032-.0774-.0484-.1604-.0484-.2441v-6.6973c0-.0838.0164-.1667.0484-.2441.0319-.0774.0787-.1477.1377-.2069s.129-.1062.2061-.1383c.0771-.032.1597-.0485.2431-.0485h6.6706c.0834 0 .166.0165.2431.0485.0771.0321.1471.0791.2061.1383s.1058.1295.1377.2069c.032.0774.0484.1603.0484.2441v6.6973c0 .0837-.0164.1667-.0484.2441-.0319.0773-.0787.1477-.1377.2069s-.129.1062-.2061.1382c-.0771.0321-.1597.0486-.2431.0486zm-6.0353-1.2757h5.4v-5.4216h-5.4z" fill="#545454"/></svg>

<svg width="24" height="24" viewBox="0 0 24 24" fill="none" xmlns="http://www.w3.org/2000/svg">
<path d="M10.3059 10.9729H3.6353C3.55187 10.9729 3.46926 10.9564 3.39218 10.9244C3.3151 10.8923 3.24507 10.8453 3.18607 10.7861C3.12708 10.7269 3.08029 10.6566 3.04836 10.5792C3.01643 10.5018 3 10.4189 3 10.3351V3.63783C3 3.55407 3.01643 3.47113 3.04836 3.39375C3.08029 3.31636 3.12708 3.24605 3.18607 3.18682C3.24507 3.12759 3.3151 3.08061 3.39218 3.04855C3.46926 3.0165 3.55187 3 3.6353 3H10.3059C10.3893 3 10.4719 3.0165 10.549 3.04855C10.6261 3.08061 10.6961 3.12759 10.7551 3.18682C10.8141 3.24605 10.8609 3.31636 10.8928 3.39375C10.9248 3.47113 10.9412 3.55407 10.9412 3.63783V10.3351C10.9412 10.4189 10.9248 10.5018 10.8928 10.5792C10.8609 10.6566 10.8141 10.7269 10.7551 10.7861C10.6961 10.8453 10.6261 10.8923 10.549 10.9244C10.4719 10.9564 10.3893 10.9729 10.3059 10.9729ZM4.27059 9.69726H9.67061V4.27567H4.27059V9.69726ZM20.3647 10.9729H13.6941C13.6107 10.9729 13.5281 10.9564 13.451 10.9244C13.3739 10.8923 13.3039 10.8453 13.2449 10.7861C13.1859 10.7269 13.1391 10.6566 13.1072 10.5792C13.0752 10.5018 13.0588 10.4189 13.0588 10.3351V3.63783C13.0588 3.55407 13.0752 3.47113 13.1072 3.39375C13.1391 3.31636 13.1859 3.24605 13.2449 3.18682C13.3039 3.12759 13.3739 3.08061 13.451 3.04855C13.5281 3.0165 13.6107 3 13.6941 3H20.3647C20.5332 3 20.6948 3.0672 20.8139 3.18682C20.9331 3.30643 21 3.46867 21 3.63783V10.3351C21 10.5043 20.9331 10.6665 20.8139 10.7861C20.6948 10.9057 20.5332 10.9729 20.3647 10.9729ZM14.3294 9.69726H19.7294V4.27567H14.3294V9.69726ZM10.3059 21H3.6353C3.55187 21 3.46926 20.9835 3.39218 20.9514C3.3151 20.9194 3.24507 20.8724 3.18607 20.8132C3.12708 20.754 3.08029 20.6836 3.04836 20.6063C3.01643 20.5289 3 20.4459 3 20.3622V13.6649C3 13.5811 3.01643 13.4982 3.04836 13.4208C3.08029 13.3434 3.12708 13.2731 3.18607 13.2139C3.24507 13.1547 3.3151 13.1077 3.39218 13.0756C3.46926 13.0436 3.55187 13.0271 3.6353 13.0271H10.3059C10.3893 13.0271 10.4719 13.0436 10.549 13.0756C10.6261 13.1077 10.6961 13.1547 10.7551 13.2139C10.8141 13.2731 10.8609 13.3434 10.8928 13.4208C10.9248 13.4982 10.9412 13.5811 10.9412 13.6649V20.3622C10.9412 20.4459 10.9248 20.5289 10.8928 20.6063C10.8609 20.6836 10.8141 20.754 10.7551 20.8132C10.6961 20.8724 10.6261 20.9194 10.549 20.9514C10.4719 20.9835 10.3893 21 10.3059 21ZM4.27059 19.7243H9.67061V14.3027H4.27059V19.7243ZM20.3647 21H13.6941C13.6107 21 13.5281 20.9835 13.451 20.9514C13.3739 20.9194 13.3039 20.8724 13.2449 20.8132C13.1859 20.754 13.1391 20.6836 13.1072 20.6063C13.0752 20.5289 13.0588 20.4459 13.0588 20.3622V13.6649C13.0588 13.5811 13.0752 13.4982 13.1072 13.4208C13.1391 13.3434 13.1859 13.2731 13.2449 13.2139C13.3039 13.1547 13.3739 13.1077 13.451 13.0756C13.5281 13.0436 13.6107 13.0271 13.6941 13.0271H20.3647C20.4481 13.0271 20.5307 13.0436 20.6078 13.0756C20.6849 13.1077 20.7549 13.1547 20.8139 13.2139C20.8729 13.2731 20.9197 13.3434 20.9516 13.4208C20.9836 13.4982 21 13.5811 21 13.6649V20.3622C21 20.4459 20.9836 20.5289 20.9516 20.6063C20.9197 20.6836 20.8729 20.754 20.8139 20.8132C20.7549 20.8724 20.6849 20.9194 20.6078 20.9514C20.5307 20.9835 20.4481 21 20.3647 21ZM14.3294 19.7243H19.7294V14.3027H14.3294V19.7243Z" fill="#545454"/>
</svg>
